X:1
T:Down Ampney
T:Down Ampney
T:Public  domain
T:Public  domain
Z:Public  domain
%%score { ( 1 2 ) ( 3 4 ) }
L:1/8
M:4/4
K:D
V:1 treble nm="P1"
V:2 treble 
V:3 bass nm="P2"
V:4 bass 
V:1
"^Editor: John Henry Fowler""^( Revision: 11-20-2007 )""^q = 120" D4 E2 F2 | A4 B4 | A8 | %3
 A4 B2 A2 | d2 c2"^( 1906 )" B4 | A4 A4 | B2 A2 G2"^Ralph Vaughan Williams" F2 | %7
 E2 D2"^( 1872 - 1958 )" E2 (FG) |[M:6/4] E4 D8 |[M:4/4] d4 c2 B2 | A4 B4 | A8 | =c4 B2 A2 | %13
 G4 F4 | [A,E]4 [CE]4 | A2 B2 A2 G2 | F2 D2 E2 (FG) | E4 D4 |] %18
V:2
 A,4 A,2 D2 | (D2 C2) (B,2 C2) | D8 | F4 F2 E2 | D2 E2 D4 | C4 D4 | D2 C2 D2 D2 | B,2 D2 D2 D2 | %8
[M:6/4] (D2 C2) D8 |[M:4/4] F4 F2 D2 | F4 (E2 D2) | C8 | E4 D2 D2 | (B,2 C2) D4 | x8 | %15
 D2 D2 C2 (DE) | A,2 D2 D2 D2 | (D2 C2) D4 |] %18
V:3
 F,4 A,2 D,2 | E,4 (G,2 E,2) | F,8 | A,4 D,2 E,2 | F,2 A,2 A,2 ^G,2 | A,4 F,4 | G,2 E,2 G,2 A,2 | %7
 G,2 A,2 B,2 B,2 |[M:6/4] A,3 G, F,8 |[M:4/4] B,4 A,2 B,2 | D2 C2 B,4 | C8 | G,2 A,2 B,2 F,2 | %13
 G,4 A,2 B,2 | C4 A,4 | A,2 G,2 E,2 B,2 | A,2 A,2 B,2 G,2 | A,3 G, F,4 |] %18
V:4
 D,4 C,2 D,2 | A,,4 G,,4 | D,8 | D,4 D,2 C,2 | B,,2 C,2 E,4 | A,,4 D,4 | G,,2 A,,2 B,,2 D,2 | %7
 G,2 F,2 G,2 E,2 |[M:6/4] A,,4 D,8 |[M:4/4] B,4 F,2 G,2 | D,2 F,2 ^G,4 | A,8 | E,2 F,2 G,2 D,2 | %13
 E,4 F,2 G,2 | A,4 A,,2 G,,2 | G,,2 G,,2 A,,2 B,,C, | D,2 F,2 G,2 E,2 | A,,4 D,4 |] %18

